X:1
T:J. S. Bach
T:BWV 988
T:Goldberg Variations: Variation XXIX
%%score { ( 1 2 ) | ( 3 4 ) }
L:1/8
M:3/4
K:G
V:1 treble nm="Harp"
V:2 treble 
V:3 bass 
V:4 bass 
V:1
 z z/ G/ z/ G/ z/ G/ z/ G/ z/ G/ | z z/ d/ z/ d/ z/ d/ z/ d/ z/ d/ | %2
 z z/ g/ z/ g/ z/ g/ z/ g/ z/ g/ | f/ z/ z (3z/ c'/b/(3c/b/a/ (3B/a/g/(3A/g/f/ | %4
 g z/ g/ z/ g/ z/ g/ z/ g/ z/ =f/ | z z/ e/ z/ e/ z/ e/ z/ e/ z/ e/ | %6
 z z/ d/ z/ d/ z/ d/ z/ d/ z/ c/ | B/ z/ z (3z/ A/B/(3c/B/A/ (3B/A/G/(3e/d/c/ | %8
 (3d/ z/ G/(3F/F/C/ (3z/ z/ G/(3A/F/ z/ (3z/ z/ B/(3^c/A/ z/ | %9
 (3z/ z/ d/(3^c/G/ z/ (3z/ z/ d/(3e/c/ z/ (3z/ z/ f/(3d/B/ z/ | %10
 (3z/ z/ c/(3B/G/ z/ (3z/ z/ A/(3G/E/ z/ (3z/ z/ F/(3E/^C/ z/ | %11
 (3z/ z/ F/(3E/^C/ z/ (3z/ z/[K:bass] D/(3C/A,/ z/ (3z/ z/ B,/(3A,/F,/ z/ | %12
 (3z/ z/ B,/(3A,/F,/ z/ (3z/ z/ G,/(3F,/D,/ z/ (3z/ z/ E,/(3D,/B,,/ z/ | %13
 (3z/ z/ E,/(3D,/B,,/ z/ (3z/ z/ C,/(3B,,/G,,/ z/ (3z/ z/ A,,/(3G,,/E,,/ z/ | %14
 (3z/ G,/A,/(3G/A,/G,/ (3z/ F,/A,/(3D/G,/F,/ (3z/ E,/G,/(3^C/G,/E,/ | z z/ D/ z/ D/ z/ D/ z2 | %16
[K:treble] z z/ G/ z/ G/ z/ G/ z/ G/ z/ G/ | z z/ d/ z/ d/ z/ d/ z/ d/ z/ d/ | %18
 z z/ g/ z/ g/ z/ g/ z/ g/ z/ g/ | f/ z/ z (3z/ c'/b/(3c/b/a/ (3B/a/g/(3A/g/f/ | %20
 g z/ g/ z/ g/ z/ g/ z/ g/ z/ =f/ | z z/ e/ z/ e/ z/ e/ z/ e/ z/ e/ | %22
 z z/ d/ z/ d/ z/ d/ z/ d/ z/ c/ | B/ z/ z (3z/ A/B/(3c/B/A/ (3B/A/G/(3e/d/c/ | %24
 (3d/ z/ G/(3F/F/C/ (3z/ z/ G/(3A/F/ z/ (3z/ z/ B/(3^c/A/ z/ | %25
 (3z/ z/ d/(3^c/G/ z/ (3z/ z/ d/(3e/c/ z/ (3z/ z/ f/(3d/B/ z/ | %26
 (3z/ z/ c/(3B/G/ z/ (3z/ z/ A/(3G/E/ z/ (3z/ z/ F/(3E/^C/ z/ | %27
 (3z/ z/ F/(3E/^C/ z/ (3z/ z/[K:bass] D/(3C/A,/ z/ (3z/ z/ B,/(3A,/F,/ z/ | %28
 (3z/ z/ B,/(3A,/F,/ z/ (3z/ z/ G,/(3F,/D,/ z/ (3z/ z/ E,/(3D,/B,,/ z/ | %29
 (3z/ z/ E,/(3D,/B,,/ z/ (3z/ z/ C,/(3B,,/G,,/ z/ (3z/ z/ A,,/(3G,,/E,,/ z/ | %30
 (3z/ G,/A,/(3G/A,/G,/ (3z/ F,/A,/(3D/G,/F,/ (3z/ E,/G,/(3^C/G,/E,/ | z z/ D/ z/ D/ z/ D/ z2 | %32
[K:treble] (3z/ z/ b/(3a/f/ z/ (3z/ z/ g/(3f/d/ z/ (3z/ z/ e/(3d/B/ z/ | %33
 (3z/ z/ e/(3d/B/ z/ (3z/ z/ c/(3B/G/ z/ (3z/ z/ A/(3G/E/ z/ | %34
 (3z/ z/ =F/(3E/C/ z/ (3z/ z/[K:bass] D/(3C/A,/ z/ (3z/ z/ B,/(3A,/F,/ z/ | %35
 (3z/ z/ G,/(3F,/^D,/ z/ (3z/ z/ E,/(3D,/B,,/ z/ (3z/ z/ =C,/(3B,,/G,,/ z/ | %36
[K:treble] z z/ e/ z/ e/ z/ e/ z/ e/ z/ e/ | z z/ e/ z/ e/ z/ e/ z/ e/ z/ e/ | %38
 (3z/ f/g/(3a/b/c'/- (3c'/b/a/(3g/f/e/ (3^d/c/B/(3A/G/F/ | E/e/ z/ e/ z/ c/ z/ c/ z/ G/ z/ G/ | %40
[K:bass] (3z/ E,/=F,/(3[F,^F,]/G,/^G,/ (3z/ B,/C/(3D/C/B,/[K:treble] (3C/D/E/(3F/G/A/ | %41
[K:bass] (3z/ D,/_E,/(3[E,=E,]/=F,/^F,/ (3z/ A,/B,/(3C/B,/A,/[K:treble] (3B,/C/D/(3E/F/G/ | %42
 (3C/ z/ F/(3E/C/ z/ (3z/ z/[K:bass] D/(3C/A,/ z/ (3z/ z/ B,/(3A,/^F,/ z/ | %43
[K:treble] (3z/ z/ B/(3A/F/ z/ (3z/ z/ G/(3F/D/ z/ (3z/ z/ E/(3D/B,/ z/ | %44
 (3z/ z/ e/(3d/B/ z/ (3z/ z/ c/(3B/G/ z/ (3z/ z/ A/(3G/E/ z/ | %45
 (3z/ z/ a/(3g/e/ z/ (3z/ z/ =f/(3e/c/ z/ (3z/ z/ d/(3c/A/ z/ | %46
 (3z/ A/B/(3c/d/e/- (3e/d/c/(3B/A/G/- (3G/F/G/(3A/B/c/ |{c} B z/ g/ z/ g/ z/ g/ z2 | %48
 (3z/ z/ b/(3a/f/ z/ (3z/ z/ g/(3f/d/ z/ (3z/ z/ e/(3d/B/ z/ | %49
 (3z/ z/ e/(3d/B/ z/ (3z/ z/ c/(3B/G/ z/ (3z/ z/ A/(3G/E/ z/ | %50
 (3z/ z/ =F/(3E/C/ z/ (3z/ z/[K:bass] D/(3C/A,/ z/ (3z/ z/ B,/(3A,/F,/ z/ | %51
 (3z/ z/ G,/(3F,/^D,/ z/ (3z/ z/ E,/(3D,/B,,/ z/ (3z/ z/ =C,/(3B,,/G,,/ z/ | %52
[K:treble] z z/ e/ z/ e/ z/ e/ z/ e/ z/ e/ | z z/ e/ z/ e/ z/ e/ z/ e/ z/ e/ | %54
 (3z/ f/g/(3a/b/c'/- (3c'/b/a/(3g/f/e/ (3^d/c/B/(3A/G/F/ | E/e/ z/ e/ z/ c/ z/ c/ z/ G/ z/ G/ | %56
[K:bass] (3z/ E,/=F,/(3[F,^F,]/G,/^G,/ (3z/ B,/C/(3D/C/B,/[K:treble] (3C/D/E/(3F/G/A/ | %57
[K:bass] (3z/ D,/_E,/(3[E,=E,]/=F,/^F,/ (3z/ A,/B,/(3C/B,/A,/[K:treble] (3B,/C/D/(3E/F/G/ | %58
 (3C/ z/ F/(3E/C/ z/ (3z/ z/[K:bass] D/(3C/A,/ z/ (3z/ z/ B,/(3A,/^F,/ z/ | %59
[K:treble] (3z/ z/ B/(3A/F/ z/ (3z/ z/ G/(3F/D/ z/ (3z/ z/ E/(3D/B,/ z/ | %60
 (3z/ z/ e/(3d/B/ z/ (3z/ z/ c/(3B/G/ z/ (3z/ z/ A/(3G/E/ z/ | %61
 (3z/ z/ a/(3g/e/ z/ (3z/ z/ =f/(3e/c/ z/ (3z/ z/ d/(3c/A/ z/ | %62
 (3z/ A/B/(3c/d/e/- (3e/d/c/(3B/A/G/- (3G/F/G/(3A/B/c/ |{c} B z/ g/ z/ g/ z/ !fermata!g/ z2 |] %64
V:2
 z z/ [B,D]/ z/ [B,D]/ z/ [B,D]/ z/ [B,D]/ z/ [B,D]/ | %1
 z z/ [FA]/ z/ [FA]/ z/ [FA]/ z/ [FA]/ z/ [FA]/ | z z/ [Be]/ z/ [Be]/ z/ [Be]/ z/ [Be]/ z/ [^ce]/ | %3
 [Ad]/ x11/2 | [Bd] z/ [Bd]/ z/ [Bd]/ z/ [Bd]/ z/ [Bd]/ z/ [Bd]/ | %5
 z z/ [Gc]/ z/ [Gc]/ z/ [Gc]/ z/ [Gc]/ z/ [Gc]/ | z z/ [FA]/ z/ [FA]/ z/ [FA]/ z/ [FA]/ z/ [FA]/ | %7
 [DG]/ x11/2 | x6 | x6 | x6 | x8/3[K:bass] x10/3 | x6 | x6 | x6 | %15
 z z/ [F,A,]/ z/ [F,A,]/ z/ [F,A,]/ z2 | %16
[K:treble] z z/ [B,D]/ z/ [B,D]/ z/ [B,D]/ z/ [B,D]/ z/ [B,D]/ | %17
 z z/ [FA]/ z/ [FA]/ z/ [FA]/ z/ [FA]/ z/ [FA]/ | z z/ [Be]/ z/ [Be]/ z/ [Be]/ z/ [Be]/ z/ [^ce]/ | %19
 [Ad]/ x11/2 | [Bd] z/ [Bd]/ z/ [Bd]/ z/ [Bd]/ z/ [Bd]/ z/ [Bd]/ | %21
 z z/ [Gc]/ z/ [Gc]/ z/ [Gc]/ z/ [Gc]/ z/ [Gc]/ | z z/ [FA]/ z/ [FA]/ z/ [FA]/ z/ [FA]/ z/ [FA]/ | %23
 [DG]/ x11/2 | x6 | x6 | x6 | x8/3[K:bass] x10/3 | x6 | x6 | x6 | %31
 z z/ [F,A,]/ z/ [F,A,]/ z/ [F,A,]/ z2 |[K:treble] x6 | x6 | x8/3[K:bass] x10/3 | x6 | %36
[K:treble] z z/ [GB]/ z/ [GB]/ z/ [GB]/ z/ [GB]/ z/ [GB]/ | %37
 z z/ [GB]/ z/ [GB]/ z/ [GB]/ z/ [GB]/ z/ [GB]/ | x6 | %39
 z/ [GB]/ z/ [GB]/ z/ [EG]/ z/ [EG]/ z/ [B,E]/ z/ [B,E]/ |[K:bass] x4[K:treble] x2 | %41
[K:bass] x4[K:treble] x2 | x8/3[K:bass] x10/3 |[K:treble] x6 | x6 | x6 | x6 | %47
 z z/ [Bd]/ z/ [Bd]/ z/ [Bd]/ z2 | x6 | x6 | x8/3[K:bass] x10/3 | x6 | %52
[K:treble] z z/ [GB]/ z/ [GB]/ z/ [GB]/ z/ [GB]/ z/ [GB]/ | %53
 z z/ [GB]/ z/ [GB]/ z/ [GB]/ z/ [GB]/ z/ [GB]/ | x6 | %55
 z/ [GB]/ z/ [GB]/ z/ [EG]/ z/ [EG]/ z/ [B,E]/ z/ [B,E]/ |[K:bass] x4[K:treble] x2 | %57
[K:bass] x4[K:treble] x2 | x8/3[K:bass] x10/3 |[K:treble] x6 | x6 | x6 | x6 | %63
 z z/ [Bd]/ z/ [Bd]/ z/ [Bd]/ z2 |] %64
V:3
 G,G,,[K:treble] F/ z/ F/ z/ F/ z/ F/ z/ |[K:bass] F,F,,[K:treble] ^c/ z/ c/ z/ c/ z/ c/ z/ | %2
[K:bass] E,E,,[K:treble] f/ z/ e/ z/ f/ z/ e/ z/ | %3
[K:bass] z/ D/A,/F,/ D,/>D/E,/>C/ D,/>B,/C,/>A,/ | B,,B,[K:treble] f/ z/ f/ z/ f/ z/ e/ z/ | %5
[K:bass] C,C[K:treble] d/ z/ d/ z/ d/ z/ c/ z/ |[K:bass] D,D[K:treble] ^c/ z/ c/ z/ c/ z/ A/ z/ | %7
[K:bass] z/ G,/D,/B,,/ G,,/>G,/F,/>D/ G,/>E/A,/>F/ | %8
 (3B,/D/ z/ (3z/ z/ A,/ (3B,/D/ z/ (3z/ z/[K:treble] C/ (3D/G/ z/ (3z/ z/ E/ | %9
 (3F/A/ z/ (3z/ z/ E/ (3F/A/ z/ (3z/ z/ G/ (3A/d/ z/ (3z/ z/ A/ | %10
 (3G/B/ z/ (3z/ z/ F/ (3E/G/ z/ (3z/ z/ D/ (3^C/E/ z/ (3z/ z/[K:bass] B,/ | %11
 (3A,/^C/ z/ (3z/ z/ B,/ (3A,/C/ z/ (3z/ z/ G,/ (3F,/A,/ z/ (3z/ z/ E,/ | %12
 (3D,/F,/ z/ (3z/ z/ E,/ (3D,/=F,/ z/ (3z/ z/ C,/ (3B,,/D,/ z/ (3z/ z/ A,,/ | %13
 (3G,,/B,,/ z/ (3z/ z/ A,,/ (3G,,/B,,/ z/ (3z/ z/ F,,/ (3E,,/G,,/ z/ (3z/ z/ D,,/ | %14
 ^C,,^C, D,F,, G,,A,, | D,,D, _D/ z/ D/ z/ D,,2 | %16
[K:treble] G,G,,[K:treble] F/ z/ F/ z/ F/ z/ F/ z/ | %17
[K:bass] F,F,,[K:treble] ^c/ z/ c/ z/ c/ z/ c/ z/ | %18
[K:bass] E,E,,[K:treble] f/ z/ e/ z/ f/ z/ e/ z/ | %19
[K:bass] z/ D/A,/F,/ D,/>D/E,/>C/ D,/>B,/C,/>A,/ | B,,B,[K:treble] f/ z/ f/ z/ f/ z/ e/ z/ | %21
[K:bass] C,C[K:treble] d/ z/ d/ z/ d/ z/ c/ z/ |[K:bass] D,D[K:treble] ^c/ z/ c/ z/ c/ z/ A/ z/ | %23
[K:bass] z/ G,/D,/B,,/ G,,/>G,/F,/>D/ G,/>E/A,/>F/ | %24
 (3B,/D/ z/ (3z/ z/ A,/ (3B,/D/ z/ (3z/ z/[K:treble] C/ (3D/G/ z/ (3z/ z/ E/ | %25
 (3F/A/ z/ (3z/ z/ E/ (3F/A/ z/ (3z/ z/ G/ (3A/d/ z/ (3z/ z/ A/ | %26
 (3G/B/ z/ (3z/ z/ F/ (3E/G/ z/ (3z/ z/ D/ (3^C/E/ z/ (3z/ z/[K:bass] B,/ | %27
 (3A,/^C/ z/ (3z/ z/ B,/ (3A,/C/ z/ (3z/ z/ G,/ (3F,/A,/ z/ (3z/ z/ E,/ | %28
 (3D,/F,/ z/ (3z/ z/ E,/ (3D,/=F,/ z/ (3z/ z/ C,/ (3B,,/D,/ z/ (3z/ z/ A,,/ | %29
 (3G,,/B,,/ z/ (3z/ z/ A,,/ (3G,,/B,,/ z/ (3z/ z/ F,,/ (3E,,/G,,/ z/ (3z/ z/ D,,/ | %30
 ^C,,^C, D,F,, G,,A,, | D,,D, _D/ z/ D/ z/ D,,2 | %32
[K:treble] (3d/f/ z/ (3z/ z/ e/ (3d/f/ z/ (3z/ z/ =c/ (3B/d/ z/ (3z/ z/ A/ | %33
 (3G/B/ z/ (3z/ z/ A/ (3G/B/ z/ (3z/ z/ F/ (3E/G/ z/ (3z/ z/ D/ | %34
 (3C/E/ z/ (3z/ z/[K:bass] B,/ (3A,/C/ z/ (3z/ z/ G,/ (3F,/A,/ z/ (3z/ z/ E,/ | %35
 (3^D,/G,/ z/ (3z/ z/ ^C,/ (3B,,/D,/ z/ (3z/ z/ A,,/ (3G,,/B,,/ z/ (3z/ z/ F,,/ | %36
 E,,E,[K:treble] ^d/ z/ d/ z/ G/ z/ d/ z/ |[K:bass] C,C[K:treble] _e/ z/ e/ z/ B/ z/ e/ z/ | %38
[K:bass] A,^D, E,A, B,B,, | E,[K:treble] ^d/ z/ B/ z/ B/ z/ F/ z/ F/ z/ |[K:bass] C,B, A,^G, A,C, | %41
 B,,A, G,F, G,B,, | (3A,,/A,/ z/ (3z/ z/ B,/ (3A,/C/ z/ (3z/ z/ G,/ (3F,/A,/ z/ (3z/ z/ E,/ | %43
 (3B,,/D/ z/ (3z/ z/ E/ (3D/F/ z/ (3z/ z/ C/ (3B,/D/ z/ (3z/ z/ A,/ | %44
 (3D,/D/[K:treble] z/ (3z/ z/ A/ (3G/B/ z/ (3z/ z/ =F/ (3E/G/ z/ (3z/ z/ D/ | %45
 (3C/c/ z/ (3z/ z/ d/ (3c/e/ z/ (3z/ z/ B/ (3A/c/ z/ (3z/ z/ G/ | ^F[K:bass]A, B,C DD, | %47
 G,G,,[K:treble] f/ z/ f/ z/[K:bass] G,2 | %48
[K:treble] (3d/f/ z/ (3z/ z/ e/ (3d/f/ z/ (3z/ z/ =c/ (3B/d/ z/ (3z/ z/ A/ | %49
 (3G/B/ z/ (3z/ z/ A/ (3G/B/ z/ (3z/ z/ F/ (3E/G/ z/ (3z/ z/ D/ | %50
 (3C/E/ z/ (3z/ z/[K:bass] B,/ (3A,/C/ z/ (3z/ z/ G,/ (3F,/A,/ z/ (3z/ z/ E,/ | %51
 (3^D,/G,/ z/ (3z/ z/ ^C,/ (3B,,/D,/ z/ (3z/ z/ A,,/ (3G,,/B,,/ z/ (3z/ z/ F,,/ | %52
 E,,E,[K:treble] ^d/ z/ d/ z/ G/ z/ d/ z/ |[K:bass] C,C[K:treble] _e/ z/ e/ z/ B/ z/ e/ z/ | %54
[K:bass] A,^D, E,A, B,B,, | E,[K:treble] ^d/ z/ B/ z/ B/ z/ F/ z/ F/ z/ |[K:bass] C,B, A,^G, A,C, | %57
 B,,A, G,F, G,B,, | (3A,,/A,/ z/ (3z/ z/ B,/ (3A,/C/ z/ (3z/ z/ G,/ (3F,/A,/ z/ (3z/ z/ E,/ | %59
 (3B,,/D/ z/ (3z/ z/ E/ (3D/F/ z/ (3z/ z/ C/ (3B,/D/ z/ (3z/ z/ A,/ | %60
 (3D,/D/ z/ (3z/ z/[K:treble] A/ (3G/B/ z/ (3z/ z/ =F/ (3E/G/ z/ (3z/ z/ D/ | %61
 (3C/c/ z/ (3z/ z/ d/ (3c/e/ z/ (3z/ z/ B/ (3A/c/ z/ (3z/ z/ G/ | ^F[K:bass]A, B,C DD, | %63
 G,G,,[K:treble] f/ z/ f/ z/[K:bass] !fermata!G,2 |] %64
V:4
 z2[K:treble] [A,C]/ z/ [A,C]/ z/ [A,C]/ z/ [A,C]/ z/ | %1
[K:bass] z2[K:treble] [EG]/ z/ [EG]/ z/ [EG]/ z/ [EG]/ z/ | %2
[K:bass] z2[K:treble] [Ad]/ z/ [G^c]/ z/ [Ad]/ z/ [Gc]/ z/ |[K:bass] x6 | %4
 z2[K:treble] [Ac]/ z/ [Ac]/ z/ [Ac]/ z/ [Ac]/ z/ | %5
[K:bass] z2[K:treble] [=FB]/ z/ [FB]/ z/ [FB]/ z/ [EA]/ z/ | %6
[K:bass] z2[K:treble] [EG]/ z/ [EG]/ z/ [EG]/ z/ [DF]/ z/ |[K:bass] x6 | x11/3[K:treble] x7/3 | %9
 x6 | x17/3[K:bass] x/3 | x6 | x6 | x6 | x6 | z2 [E,G,]/ z/ [E,G,]/ z/ z2 | %16
[K:treble] z2[K:treble] [A,C]/ z/ [A,C]/ z/ [A,C]/ z/ [A,C]/ z/ | %17
[K:bass] z2[K:treble] [EG]/ z/ [EG]/ z/ [EG]/ z/ [EG]/ z/ | %18
[K:bass] z2[K:treble] [Ad]/ z/ [G^c]/ z/ [Ad]/ z/ [Gc]/ z/ |[K:bass] x6 | %20
 z2[K:treble] [Ac]/ z/ [Ac]/ z/ [Ac]/ z/ [Ac]/ z/ | %21
[K:bass] z2[K:treble] [=FB]/ z/ [FB]/ z/ [FB]/ z/ [EA]/ z/ | %22
[K:bass] z2[K:treble] [EG]/ z/ [EG]/ z/ [EG]/ z/ [DF]/ z/ |[K:bass] x6 | x11/3[K:treble] x7/3 | %25
 x6 | x17/3[K:bass] x/3 | x6 | x6 | x6 | x6 | z2 [E,G,]/ z/ [E,G,]/ z/ z2 |[K:treble] x6 | x6 | %34
 x5/3[K:bass] x13/3 | x6 | z2[K:treble] [FA]/ z/ [FA]/ z/ B,/ z/ [FA]/ z/ | %37
[K:bass] z2[K:treble] [FA]/ z/ [FA]/ z/ B,/ z/ [FA]/ z/ |[K:bass] x6 | %39
 z[K:treble] [FA]/ z/ [^DF]/ z/ [DF]/ z/ [A,D]/ z/ [A,D]/ z/ |[K:bass] x6 | x6 | x6 | x6 | %44
 x2/3[K:treble] x16/3 | x6 | x[K:bass] x5 | z2[K:treble] [Ac]/ z/ [Ac]/ z/[K:bass] z2 | %48
[K:treble] x6 | x6 | x5/3[K:bass] x13/3 | x6 | z2[K:treble] [FA]/ z/ [FA]/ z/ B,/ z/ [FA]/ z/ | %53
[K:bass] z2[K:treble] [FA]/ z/ [FA]/ z/ B,/ z/ [FA]/ z/ |[K:bass] x6 | %55
 z[K:treble] [FA]/ z/ [^DF]/ z/ [DF]/ z/ [A,D]/ z/ [A,D]/ z/ |[K:bass] x6 | x6 | x6 | x6 | %60
 x5/3[K:treble] x13/3 | x6 | x[K:bass] x5 | z2[K:treble] [Ac]/ z/ [Ac]/ z/[K:bass] z2 |] %64

